/* XPM */
static xpm_row_t dumb_teacher_2_xpm[] = {
/* columns rows colors chars-per-pixel */
"16 16 10 1",
"  c None",
". c #000000",
"X c #290000",
"o c #00032B",
"O c #422D03",
"+ c #47510E",
"@ c #002847",
"# c #FFE4AE",
"$ c #84EFFF",
"% c #FFFFFF",
/* pixels */
"                ",
"      ####      ",
"    ########    ",
"    #..##..#    ",
"   #.%%..%%.#   ",
"   #.@%..%%.#   ",
"   #.%%..@%.#   ",
"   ##..##..##   ",
"    O##OO##O    ",
"    #OOXXOO#    ",
"      #X$#      ",
"   %%%%%$%%%%   ",
"  #    %%    #  ",
"       oo       ",
"       oo       ",
"      ++++      "
};
