/* XPM */
static xpm_row_t student_2_xpm[] = {
/* columns rows colors chars-per-pixel */
"16 16 15 1",
"  c None",
". c #000000",
"X c #601717",
"o c #563B15",
"O c #0A356F",
"+ c #494949",
"@ c #83112B",
"# c #FF0000",
"$ c #9A9222",
"% c #FFEE00",
"& c #C19D62",
"* c #8B8B8B",
"= c #AAAAAA",
"- c #97E6D5",
"; c #FFFFFF",
/* pixels */
"%   oooooo    % ",
"%  o&.&&.&o  %  ",
"  &&.-..-.&&    ",
"% &&&.&&.&&& %  ",
"   &&&&@&&&   % ",
"++++++++++++++  ",
"+++XX+++++X+++  ",
"&&+X++X+X+X+&&  ",
"&&+X+X++X+X+&&  ",
"&&++++++++++**  ",
"&&&OOO$$OOO&&&  ",
"  OOOOOOOOOO    ",
"  OOO    OOO    ",
"  ===    ===    ",
"  ;#;    ;#;    ",
"  ;;;;   ;;;;   "
};
