/* XPM */
static xpm_row_t student_final_xpm[] = {
/* columns rows colors chars-per-pixel */
"16 16 18 1",
"  c None",
". c #000000",
"X c #282828",
"o c #601717",
"O c #563B15",
"+ c #0A356F",
"@ c #494949",
"# c #83112B",
"$ c #FF0000",
"% c #9A9222",
"& c #C19D62",
"* c #6D8F90",
"= c #669FA1",
"- c #00FFF4",
"; c #8B8B8B",
": c #AAAAAA",
"> c #AEBEBF",
", c #FFFFFF",
/* pixels */
"    OOOOOO   $$ ",
"XXXO>.>>.>O  $$ ",
"  =*.,..,.*= $$ ",
"XX&==.==.==& $$ ",
"   &&&##&&&  $$ ",
"@@@@@@##@@@@@$$ ",
"@@@oo@@@@@o@@@  ",
"&&-o@@o@o@o@&$$ ",
"&&,-@o@@o@o@&$$ ",
"&&,,-@@@@@@@;;  ",
"&&,-++%%++++&&  ",
",,-+++++++++    ",
"--+++    +++    ",
"  ::: XXX:::    ",
"XX,$,    ,$,    ",
"  ,,,, XX,,,,   "
};
